svgs/duotone/calculator.svg

<svg xmlns="http://www.w3.org/2000/svg" viewBox="0 0 384 512"><!-- Font Awesome Pro 6.0.0-alpha2 by @fontawesome - https://fontawesome.com License - https://fontawesome.com/license (Commercial License) --><defs><style>.fa-secondary{opacity:.4}</style></defs><path d="M64 208C64 199.199 71.201 192 80 192H112C120.801 192 128 199.199 128 208V240C128 248.801 120.801 256 112 256H80C71.201 256 64 248.801 64 240V208ZM64 304C64 295.199 71.201 288 80 288H112C120.801 288 128 295.199 128 304V336C128 344.801 120.801 352 112 352H80C71.201 352 64 344.801 64 336V304ZM224 432C224 440.801 216.801 448 208 448H80C71.201 448 64 440.801 64 432V400C64 391.199 71.201 384 80 384H208C216.801 384 224 391.199 224 400V432ZM224 336C224 344.801 216.801 352 208 352H176C167.201 352 160 344.801 160 336V304C160 295.199 167.201 288 176 288H208C216.801 288 224 295.199 224 304V336ZM224 240C224 248.801 216.801 256 208 256H176C167.201 256 160 248.801 160 240V208C160 199.199 167.201 192 176 192H208C216.801 192 224 199.199 224 208V240ZM320 432C320 440.801 312.801 448 304 448H272C263.201 448 256 440.801 256 432V400C256 391.199 263.201 384 272 384H304C312.801 384 320 391.199 320 400V432ZM320 336C320 344.801 312.801 352 304 352H272C263.201 352 256 344.801 256 336V304C256 295.199 263.201 288 272 288H304C312.801 288 320 295.199 320 304V336ZM320 240C320 248.801 312.801 256 304 256H272C263.201 256 256 248.801 256 240V208C256 199.199 263.201 192 272 192H304C312.801 192 320 199.199 320 208V240Z" class="fa-secondary"/><path d="M336 0H48C22.375 0 0 22.375 0 48V464C0 489.625 22.375 512 48 512H336C361.625 512 384 489.625 384 464V48C384 22.375 361.625 0 336 0ZM64 208C64 199.199 71.201 192 80 192H112C120.801 192 128 199.199 128 208V240C128 248.801 120.801 256 112 256H80C71.201 256 64 248.801 64 240V208ZM64 304C64 295.199 71.201 288 80 288H112C120.801 288 128 295.199 128 304V336C128 344.801 120.801 352 112 352H80C71.201 352 64 344.801 64 336V304ZM224 432C224 440.801 216.801 448 208 448H80C71.201 448 64 440.801 64 432V400C64 391.199 71.201 384 80 384H208C216.801 384 224 391.199 224 400V432ZM224 336C224 344.801 216.801 352 208 352H176C167.201 352 160 344.801 160 336V304C160 295.199 167.201 288 176 288H208C216.801 288 224 295.199 224 304V336ZM224 240C224 248.801 216.801 256 208 256H176C167.201 256 160 248.801 160 240V208C160 199.199 167.201 192 176 192H208C216.801 192 224 199.199 224 208V240ZM320 432C320 440.801 312.801 448 304 448H272C263.201 448 256 440.801 256 432V400C256 391.199 263.201 384 272 384H304C312.801 384 320 391.199 320 400V432ZM320 336C320 344.801 312.801 352 304 352H272C263.201 352 256 344.801 256 336V304C256 295.199 263.201 288 272 288H304C312.801 288 320 295.199 320 304V336ZM320 240C320 248.801 312.801 256 304 256H272C263.201 256 256 248.801 256 240V208C256 199.199 263.201 192 272 192H304C312.801 192 320 199.199 320 208V240ZM320 144C320 152.801 312.801 160 304 160H80C71.201 160 64 152.801 64 144V80C64 71.199 71.201 64 80 64H304C312.801 64 320 71.199 320 80V144Z" class="fa-primary"/></svg>

<svg xmlns="http://www.w3.org/2000/svg" viewBox="0 0 384 512"><!--! Font Awesome Pro 6.0.0-alpha3 by @fontawesome - https://fontawesome.com License - https://fontawesome.com/license (Commercial License) --><defs><style>.fa-secondary{opacity:.4}</style></defs><path class="fa-primary" d="M336 0h-288C22.38 0 0 22.38 0 48v416C0 489.6 22.38 512 48 512h288c25.62 0 48-22.38 48-48v-416C384 22.38 361.6 0 336 0zM64 208C64 199.2 71.2 192 80 192h32C120.8 192 128 199.2 128 208v32C128 248.8 120.8 256 112 256h-32C71.2 256 64 248.8 64 240V208zM64 304C64 295.2 71.2 288 80 288h32C120.8 288 128 295.2 128 304v32C128 344.8 120.8 352 112 352h-32C71.2 352 64 344.8 64 336V304zM224 432c0 8.801-7.199 16-16 16h-128C71.2 448 64 440.8 64 432v-32C64 391.2 71.2 384 80 384h128c8.801 0 16 7.199 16 16V432zM224 336c0 8.801-7.199 16-16 16h-32C167.2 352 160 344.8 160 336v-32C160 295.2 167.2 288 176 288h32C216.8 288 224 295.2 224 304V336zM224 240C224 248.8 216.8 256 208 256h-32C167.2 256 160 248.8 160 240v-32C160 199.2 167.2 192 176 192h32C216.8 192 224 199.2 224 208V240zM320 432c0 8.801-7.199 16-16 16h-32c-8.799 0-16-7.199-16-16v-32c0-8.801 7.201-16 16-16h32c8.801 0 16 7.199 16 16V432zM320 336c0 8.801-7.199 16-16 16h-32c-8.799 0-16-7.199-16-16v-32C256 295.2 263.2 288 272 288h32C312.8 288 320 295.2 320 304V336zM320 240C320 248.8 312.8 256 304 256h-32C263.2 256 256 248.8 256 240v-32C256 199.2 263.2 192 272 192h32C312.8 192 320 199.2 320 208V240zM320 144C320 152.8 312.8 160 304 160h-224C71.2 160 64 152.8 64 144v-64C64 71.2 71.2 64 80 64h224C312.8 64 320 71.2 320 80V144z"/><path class="fa-secondary" d="M64 208C64 199.2 71.2 192 80 192h32C120.8 192 128 199.2 128 208v32C128 248.8 120.8 256 112 256h-32C71.2 256 64 248.8 64 240V208zM64 304C64 295.2 71.2 288 80 288h32C120.8 288 128 295.2 128 304v32C128 344.8 120.8 352 112 352h-32C71.2 352 64 344.8 64 336V304zM224 432c0 8.801-7.199 16-16 16h-128C71.2 448 64 440.8 64 432v-32C64 391.2 71.2 384 80 384h128c8.801 0 16 7.199 16 16V432zM224 336c0 8.801-7.199 16-16 16h-32C167.2 352 160 344.8 160 336v-32C160 295.2 167.2 288 176 288h32C216.8 288 224 295.2 224 304V336zM224 240C224 248.8 216.8 256 208 256h-32C167.2 256 160 248.8 160 240v-32C160 199.2 167.2 192 176 192h32C216.8 192 224 199.2 224 208V240zM320 432c0 8.801-7.199 16-16 16h-32c-8.799 0-16-7.199-16-16v-32c0-8.801 7.201-16 16-16h32c8.801 0 16 7.199 16 16V432zM320 336c0 8.801-7.199 16-16 16h-32c-8.799 0-16-7.199-16-16v-32C256 295.2 263.2 288 272 288h32C312.8 288 320 295.2 320 304V336zM320 240C320 248.8 312.8 256 304 256h-32C263.2 256 256 248.8 256 240v-32C256 199.2 263.2 192 272 192h32C312.8 192 320 199.2 320 208V240z"/></svg>
